X:1
T:Quand'io movo i sospiri
T:Girolamo Scotto
T:Source : Madrigali a tre voci---Venetia---G.Scotto---1541. Editor : André Vierendeels (12/08/16).
T:Notes : Original clefs : C2, C4, F3 Editorial accidentals above the staff Original note values have been halved m 29 in T : "D" notated as "E" in original print. m 39 in A : 2nd "D" notated as "C" in original print Text by Francesco Petrarcha (Canzionere) "Quinti toni"
T:Quand'io movo i sospiri
T:©
T:©
T:©
T:©
T:©
T:©
T:©
C:Girolamo Scotto
Z:©
%%score [ 1 2 3 ]
L:1/8
Q:1/4=95
M:2/2
K:F
V:1 treble nm="Alto" snm="A"
V:2 treble-8 nm="Tenor" snm="T"
V:3 bass nm="Bass" snm="B"
V:1
 z8 | z8 | G4 G2 D2 | F2 G2 E4 | F2 D2 F3 E | D3 E FG A2- | A2 GF E2 E2 | D2 D2 E2 G2- | %8
w: ||Quand' io mo-|vo'i so- spi-|ri à chia- mar|voi _ _ _ _|_ _ _ _ e'l|no- me, che nel|
 G2 F3 G A2 | D2 G3 F F2- | F2 E2 F2 C2 | C2 C2 D2 E2 | F3 E D2 C2 | D2 G3 F F2- | F2 E2 F2 C2 | %15
w: _ cor _ _|mi scris- * *|* se'a- mor', lau-|dan- do se'n- co-|min- cia u- dir|di for- * *|* * re, lau-|
 C2 C2 D2 E2 | F2 D3 E F2 | B,2 C4 D2- | DC C4 B,2 | C3 B, A,2 B,2 | G,4 A,4- | A,4 z2 F2 | %22
w: dan- do se'n- co-|min- cia u- dir|di fo- *|||* re,|_ il|
 F2 F2 D2 D2 | C2 B,2 A,4 | G,4 A,3 B, | C4 D4- | D4 z4 | z8 | z2 G2 G2 G2 | E2 E2 F2 C2 | %30
w: suon d'e pri- mi|dol- ci'ac- cen-|ti suo- *|* i,|_||il suon de|pri- mi dol- ci'ac-|
 DEFG A2 G2- | GF F4 E2 | F8 || E4 E4 | F4 D2 G2 | F2 E2 D2 F2- | F2 E2 F2 G2 | A2 D2 F2 E2 | %38
w: cen- * * * * ti|_ _ suo- *|i.|Vo- stro|sta- to re-|al, ch'in- con- tro|_ po- i, ra-|dop- pi'a l'al- ta'im-|
 D2 C2 D2 B,2 | C4 D2 A,2 | A,2 A,2 B,2 F2- | F2 E2 F2 C2 | D2 E2 F2 G2 | A3 G F2 E2 | D4 E2 G2- | %45
w: pre- sa'il mio va-|lo- re, al|mio va- lo- *|* * re, ma|_ ta- ci, gri-|da'il fin che far|le'ho- no- *|
 GF/E/ F2 G2 D2 | D2 D2 _E2 E2 | D3 C D2 E2- |"^b" ED D4 C2 | D4 C4 | C2 C2 D2 D2 | B,2 F2 F2 F2- | %52
w: * * * * re, e'|d'al- trr'ho- me- ri|so- * ma, che|_ _ da tuo-|i, co-|si lau- da- r'è|re- ve- ri- re'in-|
 FE/D/ E2 F2 F2 | F2 C2 D2 E2 | F3 E D2 F2- | F2 E2 F2 G2 | A3 G F2 A2 | G4 F2 C2 | C2 D2 C4 | %59
w: se- * * * gna, la|vo- ce stes- sa,|par _ _ ch'al-|* * tri- vi|chia- * * *|mi, O d'o-|gni ri- ve-|
 B,4 A,2 F2- | FE D3 C C2- | C2 B,2 C2 C2 | D2 F4 E2 | F8 |] %64
w: ren- za, et|_ _ ho- nor de-|* * gna, et|ho- nor de-|gna.|
V:2
 c4 c2 G2 | B2 c2 A4 | G3 A BABc | d2 c3 B/A/ G2 | A2 B3 A A2 | B3 A/G/ AB c2- | cB/A/ B2 c2 G2 | %7
w: Quand' io mo-|vo'i so- spi-||ri à chia- * *|mar voi- * *||* * * * i, e'l|
 B3 A G3 A | Bc d4 c2 | B2 B2 A2 B2 | G4 A4- | A2 A2 B2 c2 | d3 c B2 A2 | B2 G2 A2 B2 | G4 F2 G2 | %15
w: no- me, che- *|* * nel cor|mi scris- se'a- mo-|* re,|_ lau- dan- do|se'n- co- min- cia|u- dir di for-|* re, lau-|
 A6 c2 | A2 B2 B2 A2 | G4 A4 | G2 A4 GF | E2 G3 F F2- | F2 E2 F4- | F8 | z8 | z8 | z2 c2 c2 c2 | %25
w: dan- do|se'n- co- min- cia|u- dir|di fo- * *||* * re,|_|||il suon d'e|
 A2 A2 B2 F2 | GABG A2 G2- | GF F4 E2 | F2 E2 E3 F | G2 A2 D2 A2 | A2 A2 F2 G2 | A2 B2 G4 | F8 || %33
w: pri- mi dol- ci'ac-|cen- * * * * ti|_ _ suo- *|i, il suon _|_ de pri- mi|dol- ci'ac- cen- ti|suo- * *|i.|
 c4 c2 c2 | A4 B4 | A2 c2 B2 A2 | G4 F2 c2- | c2 B2 c3 B | A2 G2 A2 F2 | G2 A2 B2 c2 | d3 c B2 A2 | %41
w: Vo- stro sta-|to re-|al, ch'in- con- tro|po- i, ch'in-|* con- tro _|_ po- i, ra-|dop- pia l'al- ta'im-|pre- sa'il mio va-|
 G4 A2 A2 | B2 c2 A2 c2- | c2 A4 c2- | cB/A/ B2 c3 B | A4 G2 B2 | B2 B2 G2 G2 | B6 c2 | B2 A4 G2 | %49
w: lo- re, ma|ta- ci, gri- da'il|_ fin che|_ _ _ far le ho-|no- re, e'|d'al- tr'ho- me- ri|so- ma,|che da tuo-|
 A4 A4 | A2 A2 B2 F2 | G2 A2 B3 A | G4 F2 c2 | c2 A2 B2 c2 | d3 c B2 A2- | A2 G2 F2 c2 | %56
w: i, co-|si lau- da- r'è|re- ve- ri- re'in-|se- gna, la|vo- ce stes- sa,|par ch'al- tri- vi|_ ch'ia- mi, O|
 c2 A2 d2 c2- | c2 c3 BAG | A2 B3 A A2- | A2 G2 A4 | B4 G4 | A2 F2 G2 A2 | B3 A G4 | F8 |] %64
w: d'o- gni re- ve-|* ren- * * *|za, et ho- nor|_ de- *||gna, et ho- nor|de- * *|gna.|
V:3
 z8 | z8 | z8 | z2 C,2 C,2 C,2 | F,2 G,2 D,4 | G,2 G,2 F,3 E, | D,4 C,2 C,2 | G,2 G,2 C,2 C,2 | %8
w: |||Quand' io mo-|vo'i so- spi-|ri à chia- mar|vo- i, e'l|no- me, che nel|
 B,,2 B,2 B,2 F,2 | G,4 D,2 B,,2 | C,4 F,4- | F,4 z4 | z8 | z4 z2 B,,2 | C,2 C,2 D,2 E,2 | %15
w: cor mi scris- se'a-|mo- re, a-|mo- re,|_||lau-|dan- do se'n- co-|
 F,3 E, D,2 C,2 | D,2 G,4 F,2- | F,D, E,2 F,2 D,2 | E,2 F,2 D,4 | C,4 D,2 B,,2 | C,4 z2 C2 | %21
w: min _ cia u-|dir fo- *|* * * re u-|dir di fo-||re, il|
 C2 C2 A,2 A,2 | B,2 F,2 G,A,B,G, | A,2 G,3 F, F,2- | F,2 E,2 F,4- | F,4 B,,4 | B,4 C2 B,2 | %27
w: suon d'e pri- mi|dol- ci'ac- cen- * * *|ti suo- * *||* i,|dol- ci'ac- cen-|
 A,4 G,4 | F,2 G,2 C,4- | C,2 C,2 B,,2 F,2 | F,2 F,2 D,2 _E,2 | D,2 B,,2 C,4 | F,8 || C,4 C,2 C,2 | %34
w: |* * ti,|_ il suon de|pri- mi dol- ci'ac-|cen- ti suo-|i.|Vo- stro sta-|
 D,2 D,2 G,2 G,2 | D,2 G,2 D,2 D,2 | z2 C,2 D,2 E,2 | F,2 G,2 A,3 G, | F,2 _E,2 D,4 | %39
w: to re- al ch'in-|con- tro po- i,|ra- dop- pi'a|l'al- ta'im- pre- sa'il|mio va- lo-|
 C,4 B,,2 F,2- | F,2 D,2 G,2 F,2 |"^#" C,4 F,4 | z2 C,2 D,2 E,2 |"^b" F,3 E, D,2 C,2 | %44
w: * * re,|_ il mio va-|lo- re,|ma ta- ci,|gri- da'il fin, che|
 G,2 G,2 C,4 | D,4 z2 G,2 | G,2 G,2 C,2 C,2 | G,6 C,2 | D,2 D,2 _E,4 | D,4 F,4 | %50
w: fa le'ho- no-|re, s'|d'al- tr'ho- me- ri|so- ma,|che da tuoi-|i, co-|
 F,2 F,2 B,,2 B,,2 | _E,2 D,2 B,,2 B,,2 | C,4 F,4- | F,4 z4 | z4 z2 F,2 | F,2 C,2 D,2 E,2 | %56
w: si lau- da- r'è|re- ve- ri- re'in-|se- gna,|_|la|no- ce stes- sa|
 F,3 E, D,2 F,2- | F,2 E,2 F,4- | F,2 B,,2 F,2 F,2 | G,2 G,2 D,4 | B,,4 C,2 _E,2 | D,4 C,2 C,2 | %62
w: par ch'al- tri vi|_ chia- mi,|_ O d'o- gni|re- ve- ren-|za, et ho-|nor de- gna'et|
 B,,2 B,,2 C,4 | F,8 |] %64
w: ho- nor de-|gna.|

